water-pump-off.svg

<svg fill="currentColor" viewBox="0 0 24 24"><path d="M5.7 2.5A2 2 0 0 1 7 2h2a2 2 0 0 1 2 2v1h8a2 2 0 0 1 2 2v4a1 1 0 0 1 0 2h-4a1 1 0 0 1 0-2V9h-4.8m8.64 13.73 1.27-1.27L11 10.34 2.39 1.73 1.11 3l2.54 2.54A2 2 0 0 0 5 9v9H4a2 2 0 0 0-2 2v2h12v-2a2 2 0 0 0-2-2h-1v-5.11Z"/></svg>

<svg  viewBox="0 0 24 24" fill="currentColor"><path  d="M5.7 2.5A2 2 0 0 1 7 2H9A2 2 0 0 1 11 4V5H19A2 2 0 0 1 21 7V11A1 1 0 0 1 21 13H17A1 1 0 0 1 17 11V9H12.2M20.84 22.73L22.11 21.46L11 10.34L2.39 1.73L1.11 3L3.65 5.54A2 2 0 0 0 5 9V18H4A2 2 0 0 0 2 20V22H14V20A2 2 0 0 0 12 18H11V12.89Z"/></svg>
